X:1
T:Title
%%score { ( 1 3 4 ) | ( 2 5 ) }
L:1/8
M:4/4
K:Db
V:1 treble nm="Grand Piano"
V:3 treble 
V:4 treble 
V:2 bass 
V:5 bass 
V:1
 z4 z2[Q:1/4=100] [Fd]2 | [Gc]3 [GB] [EG][FA][Ac][GB] | [FA]3 F D>B G>F | %3
[M:11/16] E/-E/-E/-E/-E/-E/-E/-E-<E |[M:5/16] B<AD/ |[M:4/4] F6 z2 | [Fd]3 [Fc] [Ge][Fd][Ac][GB] | %7
 [FA]3 [EG] F2 F2 | EABc d2 z D |[M:3/4] [A,CA]6 |[M:1/4] (3FG=G | %11
[M:4/4] (3[DF-A-][DF-A-][DF-A-] [FA]>[DGB] [DFA]2 (3dcB | %12
 (3[DF-A-][DF-A-][DF-A-] [FA]>[A,EG] [A,DF]2 [DFA]>[DGB] | %13
 [CGA]>[A,CE] [A,CE]>[A,DF] [EG]2 [Gc]>[CGB] | [GB]>[FA] [Fd]>[GB] [FA]2 (3FG=G | %15
 (3[DF-A-][DF-A-][DF-A-] [FA]>[Fd] [Af]2 (3fed | d4 z4[K:bass] | F3 A .[CA]2[K:bass] [G,CE]2 | %18
 [F,A,D]6 z2 |] %19
V:2
 z4 z2 [D,A,]2 | [E,A,]3 [E,A,] [A,,A,]2 [A,,A,]2 | [D,A,]3 [D,A,D] [D,F,]2 z2 | %3
[M:11/16] z/ z [A,,A,]<[A,,A,][A,,A,]<[A,,A,] |[M:5/16] z5/2 | %5
[M:4/4] z z/ [D,A,]/ [D,A,]>[D,A,] [D,A,]2 [D,D]2 | [D,A,]3 [D,A,] [D,A,]2 [D,C]2 | %7
 [D,D]3 [D,A,] [D,A,D]2 [D,A,D]2 | [E,A,C]2 [E,A,E]2 [E,=G,E]2 .[E,B,E]2 |[M:3/4] A,,6 | %10
[M:1/4] (3DE_F |[M:4/4] (3D,D,D, D,>D, D,2[K:treble] (3FAG | (3D,D,D, D,>D, D,2 D,>D, | %13
 E,>E, E,>E, [A,,A,]2 [A,,A,]>A,, | [D,D]>[D,D] [D,A,]>[D,D] [D,D]2 (3DE_F | %15
 (3D,D,D, D,>[D,D] [D,D]2[K:treble] (3AGF | (3[G,B,G-][G,G-][G,G-] G>[K:bass]G, D,2 z z/ G,/ | %17
 [D,A,D]3 [D,F,D] z G A,,2 | D,6 z2 |] %19
V:3
 x8 | x8 | x8 |[M:11/16] z/ z C<CC<C |[M:5/16] x5/2 |[M:4/4] z z/ D/ D>D D2 [FA]2 | x8 | x8 | %8
 z4 z2 =G2 |[M:3/4] x6 |[M:1/4] x2 |[M:4/4] z2 D2 z4 | z2 D2 z4 | x8 | x8 | z2 D2 z4 | %16
 (3z B,B, z z/ [DGB]/ [DFA]2[K:bass] D->[DE] | x6[K:bass] x2 | x8 |] %19
V:4
 x8 | x8 | x8 |[M:11/16] x11/2 |[M:5/16] x5/2 |[M:4/4] x8 | x8 | x8 | x8 |[M:3/4] x6 |[M:1/4] x2 | %11
[M:4/4] x8 | x8 | x8 | x8 | x8 | z2 B,2 z2[K:bass] F,2 | x6[K:bass] x2 | x8 |] %19
V:5
 x8 | x8 | x8 |[M:11/16] x11/2 |[M:5/16] x5/2 |[M:4/4] x8 | x8 | x8 | x8 |[M:3/4] x6 |[M:1/4] x2 | %11
[M:4/4] x6[K:treble] x2 | x8 | x8 | x8 | x6[K:treble] x2 | z2 G,2[K:bass] z2 D,2 | z4 [A,,E,]2 z2 | %18
 x8 |] %19

